package/thingino-webui/files/var/www/a/ircut_filter.svg

<?xml version="1.0" encoding="UTF-8" standalone="no"?>
<!-- Created with Inkscape (http://www.inkscape.org/) -->

<svg width="512" height="512" viewBox="0 0 5.3333333 5.3333333" version="1.1" id="svg5" inkscape:version="1.2.2 (b0a8486541, 2022-12-01)" xml:space="preserve" sodipodi:docname="ircut_filter.svg" xmlns:inkscape="http://www.inkscape.org/namespaces/inkscape" xmlns:sodipodi="http://sodipodi.sourceforge.net/DTD/sodipodi-0.dtd" xmlns="http://www.w3.org/2000/svg" xmlns:svg="http://www.w3.org/2000/svg"><sodipodi:namedview id="namedview7" pagecolor="#ffffff" bordercolor="#000000" borderopacity="0.25" inkscape:showpageshadow="2" inkscape:pageopacity="0.0" inkscape:pagecheckerboard="0" inkscape:deskcolor="#d1d1d1" inkscape:document-units="mm" showgrid="false" inkscape:zoom="1.8401372" inkscape:cx="225.25494" inkscape:cy="307.85748" inkscape:window-width="2560" inkscape:window-height="1379" inkscape:window-x="0" inkscape:window-y="32" inkscape:window-maximized="1" inkscape:current-layer="layer1" /><defs id="defs2" /><g inkscape:label="Layer 1" inkscape:groupmode="layer" id="layer1"><rect style="fill:#800000;fill-opacity:1;stroke:#800000;stroke-width:0.729167;stroke-linecap:round;stroke-miterlimit:2;stroke-dasharray:none;paint-order:markers stroke fill;stop-color:#000000" id="rect23630" width="3.7499998" height="3.7499998" x="1.1458335" y="1.1458335" /><path id="rect23630-8" style="fill:#808080;stroke-width:0.729166;stroke-linecap:round;stroke-miterlimit:2;paint-order:markers stroke fill;stop-color:#000000" d="M 0.78125,0.78125 H 3.3410553 L 3.5781514,1.0187255 3.7594922,1.5051471 V 2.778188 L 3.4203346,3.3168089 2.8084465,3.7875655 H 1.4027287 L 1.0827217,3.5770196 0.78125,3.2801578 Z" sodipodi:nodetypes="ccccccccccc" /><path id="path26572" style="color:#000000;fill:#ffffff;stroke-linecap:round;stroke-miterlimit:2;-inkscape-stroke:none;paint-order:markers stroke fill" d="M 2.0605469 0.064453125 C 0.96070451 0.064453125 0.060546875 0.96461081 0.060546875 2.0644531 C 0.060546875 3.1642955 0.96070451 4.0644531 2.0605469 4.0644531 C 3.1603892 4.0644531 4.0585937 3.1642955 4.0585937 2.0644531 C 4.0585937 0.96461081 3.1603892 0.064453125 2.0605469 0.064453125 z M 2.0600382 0.42954508 A 1.6346803 1.6346803 0 0 1 3.6947225 2.0642293 A 1.6346803 1.6346803 0 0 1 2.0600382 3.6989136 A 1.6346803 1.6346803 0 0 1 0.42537435 2.0642293 A 1.6346803 1.6346803 0 0 1 2.0600382 0.42954508 z " /></g></svg>

<svg xmlns="http://www.w3.org/2000/svg" xml:space="preserve" width="512" height="512" viewBox="0 0 5.333 5.333"><g paint-order="markers stroke fill"><path fill="maroon" stroke="maroon" stroke-linecap="round" stroke-miterlimit="2" stroke-width=".729" d="M1.146 1.146h3.75v3.75h-3.75z"/><path fill="gray" d="M.781.781h2.56l.237.238.181.486v1.273l-.339.539-.612.47H1.403l-.32-.21L.78 3.28Z"/><path fill="#fff" d="M2.06.064c-1.1 0-2 .9-2 2s.9 2 2 2 1.999-.9 1.999-2-.899-2-1.998-2zm0 .366a1.635 1.635 0 0 1 1.635 1.634A1.635 1.635 0 0 1 2.06 3.7 1.635 1.635 0 0 1 .425 2.064 1.635 1.635 0 0 1 2.06.43z" color="#000" style="-inkscape-stroke:none"/></g></svg>
